third_party/noto/noto_2/emoji_u1f5c2.svg

<svg enable-background="new 0 0 128 128" version="1.1" viewBox="0 0 128 128" xmlns="http://www.w3.org/2000/svg"><path d="m88.24 9.65v-2.3c0-1.85 1.5-3.35 3.35-3.35h22.62c1.85 0 3.35 1.5 3.35 3.35v8.26c1.2 0 2.17 0.97 2.17 2.17v74.32h-111.47v-73.29c0-1.77 1.43-3.2 3.2-3.2h70.81c3.3 0 5.97-2.67 5.97-5.96z" fill="#F3AB47"/><path d="M8.26,34.42v-4.43c0-1.62,1.31-2.94,2.94-2.94h105.6c1.62,0,2.94,1.31,2.94,2.94v4.43H8.26z" fill="#DE7340"/><path d="m78.66 24.78v-2.3c0-1.85-1.5-3.35-3.35-3.35h-22.62c-1.85 0-3.35 1.5-3.35 3.35v2.3c0 3.29-2.67 5.96-5.96 5.96h-31.92c-1.77 0-3.2 1.43-3.2 3.2v75.94h111.47v-75.94c0-1.77-1.43-3.2-3.2-3.2h-31.91c-3.29 0-5.96-2.67-5.96-5.96z" fill="#FFCA28"/><path d="M8.26,49.66v-4.54c0-1.62,1.31-2.94,2.94-2.94h105.6c1.62,0,2.94,1.31,2.94,2.94v4.43L8.26,49.66z" fill="#F3AB47"/><path d="m39.76 39.9v-2.3c0-1.85-1.5-3.35-3.35-3.35h-22.62c-1.85 0-3.35 1.5-3.35 3.35v8.26c-1.2 0-2.17 0.97-2.17 2.17v73.13c0 1.56 1.27 2.83 2.83 2.83h105.81c1.56 0 2.83-1.27 2.83-2.83v-72.1c0-1.77-1.43-3.2-3.2-3.2h-70.82c-3.29 0-5.96-2.67-5.96-5.96z" fill="#FFE36C"/><path d="m39.76 39.9v-2.3c0-1.85-1.5-3.35-3.35-3.35h-22.62c-1.85 0-3.35 1.5-3.35 3.35v8.26h35.29c-3.3 0-5.97-2.67-5.97-5.96z" fill="#F44336"/><path d="m78.66 24.78v-2.3c0-1.85-1.5-3.35-3.35-3.35h-22.62c-1.85 0-3.35 1.5-3.35 3.35v2.3c0 3.29-2.67 5.96-5.96 5.96h41.25c-3.3 0-5.97-2.67-5.97-5.96z" fill="#0288D1"/><path d="m117.56 15.07v-7.72c0-1.85-1.5-3.35-3.35-3.35h-22.62c-1.85 0-3.35 1.5-3.35 3.35v2.3c0 2.41-1.44 4.49-3.5 5.42h32.82z" fill="#7CB342"/></svg>

<?xml version="1.0" encoding="utf-8"?>
<!-- Generator: Adobe Illustrator 25.2.3, SVG Export Plug-In . SVG Version: 6.00 Build 0)  -->
<svg version="1.1" id="Layer_5" xmlns="http://www.w3.org/2000/svg" xmlns:xlink="http://www.w3.org/1999/xlink" x="0px" y="0px"
	 viewBox="0 0 128 128" style="enable-background:new 0 0 128 128;" xml:space="preserve">
<g>
	<path style="fill:#F3AB47;" d="M88.24,9.65v-2.3c0-1.85,1.5-3.35,3.35-3.35h22.62c1.85,0,3.35,1.5,3.35,3.35v8.26h0
		c1.2,0,2.17,0.97,2.17,2.17V92.1H8.26V18.81c0-1.77,1.43-3.2,3.2-3.2h70.81C85.57,15.61,88.24,12.94,88.24,9.65z"/>
	<path style="fill:#DE7340;" d="M8.26,34.42v-4.43c0-1.62,1.31-2.94,2.94-2.94h105.6c1.62,0,2.94,1.31,2.94,2.94v4.43H8.26z"/>
	<path style="fill:#FFCA28;" d="M78.66,24.78v-2.3c0-1.85-1.5-3.35-3.35-3.35H52.69c-1.85,0-3.35,1.5-3.35,3.35v2.3
		c0,3.29-2.67,5.96-5.96,5.96H11.46c-1.77,0-3.2,1.43-3.2,3.2v75.94h111.47V33.94c0-1.77-1.43-3.2-3.2-3.2H84.62
		C81.33,30.74,78.66,28.07,78.66,24.78z"/>
	<path style="fill:#F3AB47;" d="M8.26,49.66v-4.54c0-1.62,1.31-2.94,2.94-2.94h105.6c1.62,0,2.94,1.31,2.94,2.94v4.43L8.26,49.66z"
		/>
	<path style="fill:#FFE36C;" d="M39.76,39.9v-2.3c0-1.85-1.5-3.35-3.35-3.35H13.79c-1.85,0-3.35,1.5-3.35,3.35v8.26h0
		c-1.2,0-2.17,0.97-2.17,2.17v73.13c0,1.56,1.27,2.83,2.83,2.83h105.81c1.56,0,2.83-1.27,2.83-2.83V49.06c0-1.77-1.43-3.2-3.2-3.2
		H45.72C42.43,45.86,39.76,43.19,39.76,39.9z"/>
	<path style="fill:#F44336;" d="M39.76,39.9v-2.3c0-1.85-1.5-3.35-3.35-3.35H13.79c-1.85,0-3.35,1.5-3.35,3.35v8.26h35.29
		C42.43,45.86,39.76,43.19,39.76,39.9z"/>
	<path style="fill:#0288D1;" d="M78.66,24.78v-2.3c0-1.85-1.5-3.35-3.35-3.35H52.69c-1.85,0-3.35,1.5-3.35,3.35v2.3
		c0,3.29-2.67,5.96-5.96,5.96h41.25C81.33,30.74,78.66,28.07,78.66,24.78z"/>
	<path style="fill:#7CB342;" d="M117.56,15.07V7.35c0-1.85-1.5-3.35-3.35-3.35H91.59c-1.85,0-3.35,1.5-3.35,3.35v2.3
		c0,2.41-1.44,4.49-3.5,5.42H117.56z"/>
</g>
</svg>
